sprites/streets-src/_rail_src/rer-11.svg

<?xml version="1.0" encoding="UTF-8" standalone="no"?>
<!-- Generator: Adobe Illustrator 13.0.0, SVG Export Plug-In . SVG Version: 6.00 Build 14948)  -->

<svg
   xmlns:dc="http://purl.org/dc/elements/1.1/"
   xmlns:cc="http://creativecommons.org/ns#"
   xmlns:rdf="http://www.w3.org/1999/02/22-rdf-syntax-ns#"
   xmlns:svg="http://www.w3.org/2000/svg"
   xmlns="http://www.w3.org/2000/svg"
   xmlns:sodipodi="http://sodipodi.sourceforge.net/DTD/sodipodi-0.dtd"
   xmlns:inkscape="http://www.inkscape.org/namespaces/inkscape"
   version="1.1"
   id="Layer_1"
   x="0px"
   y="0px"
   width="11"
   height="11"
   viewBox="0 0 11 11"
   enable-background="new 0 0 400 400"
   xml:space="preserve"
   sodipodi:version="0.32"
   inkscape:version="0.91 r13725"
   sodipodi:docname="rer-11.svg"
   inkscape:output_extension="org.inkscape.output.svg.inkscape"><metadata
     id="metadata8"><rdf:RDF><cc:Work
         rdf:about=""><dc:format>image/svg+xml</dc:format><dc:type
           rdf:resource="http://purl.org/dc/dcmitype/StillImage" /><dc:title></dc:title></cc:Work></rdf:RDF></metadata><defs
     id="defs6"><inkscape:perspective
       sodipodi:type="inkscape:persp3d"
       inkscape:vp_x="0 : 200 : 1"
       inkscape:vp_y="0 : 1000 : 0"
       inkscape:vp_z="400 : 200 : 1"
       inkscape:persp3d-origin="200 : 133.33333 : 1"
       id="perspective10" /></defs><sodipodi:namedview
     inkscape:window-height="755"
     inkscape:window-width="875"
     inkscape:pageshadow="2"
     inkscape:pageopacity="0.0"
     guidetolerance="10.0"
     gridtolerance="10.0"
     objecttolerance="10.0"
     borderopacity="1.0"
     bordercolor="#666666"
     pagecolor="#ffffff"
     id="base"
     showgrid="false"
     inkscape:zoom="45.254834"
     inkscape:cx="4.7715177"
     inkscape:cy="6.599639"
     inkscape:window-x="17"
     inkscape:window-y="0"
     inkscape:current-layer="Layer_1"
     inkscape:window-maximized="0"
     inkscape:snap-bbox="true"
     inkscape:bbox-paths="true"
     inkscape:bbox-nodes="true"
     inkscape:snap-bbox-edge-midpoints="true"
     inkscape:object-paths="true"
     inkscape:snap-intersection-paths="true"
     inkscape:object-nodes="true"
     inkscape:snap-smooth-nodes="true"><inkscape:grid
       type="xygrid"
       id="grid3201"
       empspacing="2"
       visible="true"
       enabled="true"
       snapvisiblegridlinesonly="true"
       spacingx="0.5"
       spacingy="0.5"
       color="#ff0000"
       opacity="0.1254902" /></sodipodi:namedview><g
     id="g3843"
     transform="translate(-0.5136719,-0.97460938)"><path
       style="fill:#3377a7;fill-opacity:1"
       d="M 6.0136719,0.97460938 C 3.2509852,0.97460938 1,3.2250502 1,6 1,8.7370854 3.2509852,10.974609 6.0136719,10.974609 8.7759567,10.974609 11,8.7620854 11,6 11,3.2250502 8.6756032,0.97460938 6.0136719,0.97460938 Z M 6.0117188,2 c 1.6430167,0 3.0656563,1.0282377 3.6738281,2.4707031 l 0,0.00195 C 9.7865623,4.7125527 9.8646722,4.9646924 9.9179688,5.2246094 9.9714003,5.4851525 10,5.75434 10,6.0292969 10,6.5292607 9.8953138,7.0047792 9.7226562,7.4472656 L 9,6 9.75,5 9.71875,5 9.0136719,3.9746094 l -1.5,0 0,4 0.5,0 0,-1.5 0.5,0 0.5,1.5 0.5,0 C 8.8212061,9.1606167 7.4793448,10 6.0117188,10 5.1849911,10 4.4143831,9.7496297 3.7734375,9.3203125 3.5598911,9.1773999 3.3615713,9.0157287 3.1796875,8.8359375 2.9309853,8.5900966 2.6911335,8.277884 2.5136719,7.9746094 l 0.5,0 0,-1.5 0.5,0 0.5,1.5 1,0 -1,-2 L 4.75,5 4.71875,5 4.0136719,3.9746094 l -1.5,0 C 2.687366,3.6804811 2.9401766,3.426186 3.1796875,3.1855469 3.3612379,3.0031836 3.5603432,2.8365911 3.7734375,2.6914062 3.9869839,2.545996 4.2153923,2.4208696 4.4550781,2.3183594 4.9344796,2.1133726 5.4609294,2 6.0117188,2 Z m -0.9980469,5.9746094 2,-4e-7 0,-0.7168544 -1.5,-0.00775 0,-1.2753906 1.5,0 0,-0.5 -1.5,0 0,-1 1.5000001,4e-7 0,-0.5 -2,0 z M 2.5,4.1289062 2.5,5 l 0,2 0,0.90625 C 2.438748,7.7948189 2.3668232,7.6896268 2.3164062,7.5722656 2.1123995,7.0974119 2,6.576319 2,6.0292969 2,5.4765731 2.1123994,4.9481456 2.3164062,4.4667969 2.3668282,4.347802 2.4387409,4.2418269 2.5,4.1289062 Z m 0.5136719,0.3457032 0.5,0 L 4,5 3.0136719,5.9746094 Z m 5,-4e-7 0.5,0 L 9,5 8.0136719,5.9746094 Z"
       id="path3324"
       inkscape:connector-curvature="0"
       sodipodi:nodetypes="sssssscccsccccccccccccscsccccccccccccccsccccccccccccccccccscccccccccccc" /></g></svg>

<?xml version="1.0" encoding="UTF-8" standalone="no"?>
<!-- Generator: Adobe Illustrator 13.0.0, SVG Export Plug-In . SVG Version: 6.00 Build 14948)  -->

<svg
   xmlns:dc="http://purl.org/dc/elements/1.1/"
   xmlns:cc="http://creativecommons.org/ns#"
   xmlns:rdf="http://www.w3.org/1999/02/22-rdf-syntax-ns#"
   xmlns:svg="http://www.w3.org/2000/svg"
   xmlns="http://www.w3.org/2000/svg"
   xmlns:sodipodi="http://sodipodi.sourceforge.net/DTD/sodipodi-0.dtd"
   xmlns:inkscape="http://www.inkscape.org/namespaces/inkscape"
   version="1.1"
   id="Layer_1"
   x="0px"
   y="0px"
   width="12"
   height="12"
   viewBox="0 0 12 12"
   enable-background="new 0 0 400 400"
   xml:space="preserve"
   sodipodi:version="0.32"
   inkscape:version="0.91+devel+osxmenu r12911"
   sodipodi:docname="rer-11.svg"
   inkscape:output_extension="org.inkscape.output.svg.inkscape"><metadata
     id="metadata8"><rdf:RDF><cc:Work
         rdf:about=""><dc:format>image/svg+xml</dc:format><dc:type
           rdf:resource="http://purl.org/dc/dcmitype/StillImage" /><dc:title /></cc:Work></rdf:RDF></metadata><defs
     id="defs6"><inkscape:perspective
       sodipodi:type="inkscape:persp3d"
       inkscape:vp_x="0 : 200 : 1"
       inkscape:vp_y="0 : 1000 : 0"
       inkscape:vp_z="400 : 200 : 1"
       inkscape:persp3d-origin="200 : 133.33333 : 1"
       id="perspective10" /></defs><sodipodi:namedview
     inkscape:window-height="734"
     inkscape:window-width="1088"
     inkscape:pageshadow="2"
     inkscape:pageopacity="0.0"
     guidetolerance="10.0"
     gridtolerance="10.0"
     objecttolerance="10.0"
     borderopacity="1.0"
     bordercolor="#666666"
     pagecolor="#ffffff"
     id="base"
     showgrid="true"
     inkscape:zoom="32"
     inkscape:cx="0.3772766"
     inkscape:cy="4.091857"
     inkscape:window-x="808"
     inkscape:window-y="153"
     inkscape:current-layer="Layer_1"
     inkscape:window-maximized="0"><inkscape:grid
       type="xygrid"
       id="grid3201"
       empspacing="2"
       visible="true"
       enabled="true"
       snapvisiblegridlinesonly="true" /></sodipodi:namedview><circle
     style="opacity:1;fill:#ffffff;fill-opacity:1;stroke:none;stroke-width:2;stroke-linecap:round;stroke-linejoin:round;stroke-miterlimit:4;stroke-dasharray:none;stroke-dashoffset:0;stroke-opacity:1;marker:none"
     id="path38565"
     cx="6"
     cy="6"
     r="4" /><g
     id="g3843"><path
       style="fill:#3377a7;fill-opacity:1"
       d="M 6.0136719 0.97460938 C 3.2509852 0.97460938 1 3.2250502 1 6 C 1 8.7370854 3.2509852 10.974609 6.0136719 10.974609 C 8.7759567 10.974609 11 8.7620854 11 6 C 11 3.2250502 8.6756032 0.97460938 6.0136719 0.97460938 z M 6.0117188 2 C 7.6547355 2 9.0773751 3.0282377 9.6855469 4.4707031 C 9.6855469 4.4707031 9.6855469 4.4726562 9.6855469 4.4726562 C 9.7865623 4.7125527 9.8646722 4.9646924 9.9179688 5.2246094 C 9.9714003 5.4851525 10 5.75434 10 6.0292969 C 10 6.5292607 9.8953138 7.0047792 9.7226562 7.4472656 L 9 6 L 9.75 5 L 9.71875 5 L 9 4 L 7.5 4 L 7.5 5 L 7.5 7 L 7.5 8 L 8 8 L 8 6.5 L 8.5 6.5 L 9 8 L 9.4492188 8 C 8.756753 9.1860073 7.4793448 10 6.0117188 10 C 5.1849911 10 4.4143831 9.7496297 3.7734375 9.3203125 C 3.5598911 9.1773999 3.3615713 9.0157287 3.1796875 8.8359375 C 2.9309853 8.5900966 2.7282428 8.3032746 2.5507812 8 L 3 8 L 3 6.5 L 3.5 6.5 L 4 8 L 5 8 L 4 6 L 4.75 5 L 4.71875 5 L 4 4 L 2.5703125 4 C 2.7440066 3.7058717 2.9401766 3.426186 3.1796875 3.1855469 C 3.3612379 3.0031836 3.5603432 2.8365911 3.7734375 2.6914062 C 3.9869839 2.545996 4.2153923 2.4208696 4.4550781 2.3183594 C 4.9344796 2.1133726 5.4609294 2 6.0117188 2 z M 5 8 L 7 8 L 7 7.25 L 5.5 7.25 L 5.5 6 L 7 6 L 7 5.5 L 5.5 5.5 L 5.5 4.5 L 7 4.5 L 7 4 L 5 4 L 5 8 z M 2.5 4.1289062 L 2.5 5 L 2.5 7 L 2.5 7.90625 C 2.438748 7.7948189 2.3668232 7.6896268 2.3164062 7.5722656 C 2.1123995 7.0974119 2 6.576319 2 6.0292969 C 2 5.4765731 2.1123994 4.9481456 2.3164062 4.4667969 C 2.3668282 4.347802 2.4387409 4.2418269 2.5 4.1289062 z M 3 4.5 L 3.5 4.5 L 4 5 L 3 6 L 3 4.5 z M 8 4.5 L 8.5 4.5 L 9 5 L 8 6 L 8 4.5 z "
       id="path3324" /></g></svg>
